!!!Melodie: eigene
!!!Typ: Lied
**kern	**silbe	**silbe	**silbe	**silbe	**silbe	**silbe	**silbe	**silbe	**silbe	**silbe	**silbe	**silbe	**silbe	**silbe
*clefG2	*langDE	*lang:DE	*lang:DE	*lang:DE	*lang:DE	*lang:DE	*lang:DE	*lang:DE	*lang:DE	*lang:DE	*lang:DE	*lang:DE	*lang:DE	*lang:DE
*M4/4	*	*	*	*	*	*	*	*	*	*	*	*	*	*
*met(c)	*	*	*	*	*	*	*	*	*	*	*	*	*	*
4a	Christ	er	Den	Das	Je#	Und	Es	das	Hier	das	So	das	Wir	der
=	=	=	=	=	=	=	=	=	=	=	=	=	=	=
4g	lag	ist	Tod	macht	#sus	hat	war	Le#	ist	ist	fei#	uns	es#	al#
8La	in	wie#	nie#	al#	Chris#	die	ein	#ben	das	an	#ern	der	#sen	#te
8Jb	|	|	|	|	|	|	|	|	|	|	|	|	|	|
4cc	To#	#der	#mand	#les	#tus,	Sünd'	wun#	be#	recht’	des	wir	Herr	und	Sau'r#
4dd	#des#	er#	zwin#	un#	Got#	ab#	#der#	#hielt	Os#	Kreu#	das	schei#	le#	#teig
=	=	=	=	=	=	=	=	=	=	=	=	=	=	=
(4cc	#ban#	#stan#	#gen	#s're	#tes	#ge#	#lich'	den	#ter#	#zes	hoh’	#nen	#ben	nicht
8Lb	|	|	|	|	|	|	|	|	|	|	|	|	|	|
8Ja)	|	|	|	|	|	|	|	|	|	|	|	|	|	|
4;a	#den,	#den,	konnt',	Sünd',	Sohn,	#tan,	Krieg,	Sieg,	#lamm,	Stamm	Fest	lässt;	wohl,	soll
8La	für	und	bei	kein	an	da#	da	es	da#	in	mit	er	im	sein
8Jg	|	|	|	|	|	|	|	|	|	|	|	|	|	|
=	=	=	=	=	=	=	=	=	=	=	=	=	=	=
4f	un#	hat	al#	Un#	un#	#mit	Tod	hat	#von	hei#	Her#	ist	rech#	bei
4g	#s're	uns	#len	#schuld	#ser	dem	und	den	Gott	#ßer	#zens#	sel#	#ten	dem
8La	Sünd’	‘bracht	Men#	war	statt	Tod	Le#	Tod	hat	Lieb'	#freud'	#ber	Os#	Wort
8Jg	|	|	|	|	|	|	|	|	|	|	|	|	|	|
4f	ge#	das	#schen#	zu	ist	ge#	#ben	ver#	ge#	ge#	und	die	#ter#	der
=	=	=	=	=	=	=	=	=	=	=	=	=	=	=
(4.e	#ge#	Le#	#kin#	fin#	kom#	#nom#	run#	#schlung#	#bo#	#ge#	Won#	Son#	#fla#	Gna#
8d)	|	|	|	|	|	|	|	|	|	|	|	|	|	|
4d	#ben;	#ben:	#dern:	#den;	#men,	#men	#gen:	#en.	#ten,	#ben:	#ne,	#ne,	#den:	#den.
=:|	=	=	=	=	=	=	=	=	=	=	=	=	=	=
8Ld	.	Des	.	Da#	.	all	.	die	.	Des	.	der	.	Chris#
8Je	.	|	.	|	.	|	.	|	.	|	.	|	.	|
4f	.	wir	.	#vor	.	sein	.	Schrift	.	Blut	.	durch	.	#tus
4g	.	sol#	.	kam	.	Recht	.	hat	.	zei#	.	sei#	.	will
8Ld	.	#len	.	der	.	und	.	ver#	.	#chnet	.	#ner	.	die
8Je	.	|	.	|	.	|	.	|	.	|	.	|	.	|
=	=	=	=	=	=	=	=	=	=	=	=	=	=	=
4f	.	fröh#	.	Tod	.	sein’	.	#kün#	.	un#	.	Gna#	.	Kos#
4g	.	#lich	.	so	.	Ge#	.	#det	.	#s're	.	#den	.	#te
4;a	.	sein;	.	bald,	.	#walt,	.	das,	.	Tür,	.	Glanz	.	sein,
4a	.	Gott	.	und	.	da	.	wie	.	das	.	er#	.	und
=	=	=	=	=	=	=	=	=	=	=	=	=	=	=
4dd	.	lo#	.	nahm	.	blei#	.	ein	.	hält	.	#leuch#	.	spei#
4cc#	.	#ben	.	ü#	.	#bet	.	Tod	.	der	.	#tet	.	#sen
4dd	.	und	.	#ber	.	nichts	.	den	.	Glaub'	.	un#	.	un#
8Lee	.	ihm	.	uns	.	denn	.	an#	.	dem	.	#s're	.	#s're
8Jdd	.	|	.	|	.	|	.	|	.	|	.	|	.	|
=	=	=	=	=	=	=	=	=	=	=	=	=	=	=
4cc	.	dank#	.	Ge#	.	Tod’s#	.	#der'n	.	To#	.	Her#	.	Seel'
8Lb	.	#bar	.	#walt,	.	#ge#	.	fraß.	.	#de	.	#zen	.	al#
8Ja)	.	|	.	|	.	|	.	|	.	|	.	|	.	|
4;a	.	sein,	.	hielt	.	#stalt,	.	ein	.	für,	.	ganz;	.	#lein,
8La	.	und	.	uns	.	den	.	Spott	.	der	.	der	.	der
8Jb-	.	|	.	|	.	|	.	|	.	|	.	|	.	|
=	=	=	=	=	=	=	=	=	=	=	=	=	=	=
8Lcc	.	sin#	.	in	.	Sta#	.	aus	.	Wür#	.	Sün#	.	Glaub’
8Jb-	.	|	.	|	.	|	.	|	.	|	.	|	.	|
8La	.	#gen	.	sei'm	.	#chel	.	dem	.	#ger	.	#den	.	will
8Jb-	.	|	.	|	.	|	.	|	.	|	.	|	.	|
4cc	.	Hal#	.	Reich	.	hat	.	Tod	.	kann	.	Nacht	.	kein’s
4g	.	#le#	.	ge#	.	er	.	ist	.	uns	.	ist	.	an#
=	=	=	=	=	=	=	=	=	=	=	=	=	=	=
(4f	.	#lu#	.	#fang#	.	ver#	.	‘wor#	.	nicht	.	ver#	.	#der'n
8Lee	.	|	.	|	.	|	.	|	.	|	.	|	.	|
8Jd)	.	|	.	|	.	|	.	|	.	|	.	|	.	|
4;d	.	#ja,	.	#en,	.	#lor'n,	.	#den,	.	rühr'n,	.	#gang',	.	leb’n,
8La	.	Hal#	.	Hal#	.	Hal#	.	Hal#	.	Hal#	.	Hal#	.	Hal#
8Jg	.	|	.	|	.	|	.	|	.	|	.	|	.	|
=	=	=	=	=	=	=	=	=	=	=	=	=	=	=
4f	.	#le#	.	#le#	.	#le#	.	#le#	.	#le#	.	#le#	.	#le#
8Le	.	#lu#	.	#lu#	.	#lu#	.	#lu#	.	#lu#	.	#lu#	.	#lu#
8Jd	.	|	.	|	.	|	.	|	.	|	.	|	.	|
4;d	.	#ja.	.	#ja.	.	#ja.	.	#ja.	.	#ja.	.	#ja.	.	#ja.
==	==	==	==	==	==	==	==	==	==	==	==	==	==	==
*-	*-	*-	*-	*-	*-	*-	*-	*-	*-	*-	*-	*-	*-	*-
